svg/color/truf.svg

<svg xmlns="http://www.w3.org/2000/svg" width="802" height="802" fill="none" viewBox="0 0 802 802"><circle cx="401" cy="401" r="401" fill="url(#truf_svg-a)"/><path fill="#fff" d="M438.928 625.875h-98.664V513.302c0-117.957 95.965-213.915 213.915-213.915h39.3v98.664h-39.3c-63.548 0-115.251 51.702-115.251 115.251z"/><path fill="#fff" d="M243.713 398.054h-39.3V299.39h39.3c63.548 0 115.251-51.703 115.251-115.251h98.664c0 117.957-95.965 213.915-213.915 213.915"/><defs><linearGradient id="truf_svg-a" x1="135.672" x2="1041.09" y1="38.021" y2="465.153" gradientUnits="userSpaceOnUse"><stop stop-color="#1A2B6B"/><stop offset=".266" stop-color="#0D58C6"/><stop offset=".474" stop-color="#6F8BEF"/><stop offset="1" stop-color="#fff"/></linearGradient></defs></svg>

<svg width="802" height="802" viewBox="0 0 802 802" fill="none" xmlns="http://www.w3.org/2000/svg">
<circle cx="401" cy="401" r="401" fill="url(#paint0_linear_1459_714)"/>
<path d="M438.928 625.875H340.264V513.302C340.264 395.345 436.229 299.387 554.179 299.387H593.479V398.051H554.179C490.631 398.051 438.928 449.753 438.928 513.302V625.875Z" fill="white"/>
<path d="M243.713 398.054H204.413V299.39H243.713C307.261 299.39 358.964 247.687 358.964 184.139H457.628C457.628 302.096 361.663 398.054 243.713 398.054Z" fill="white"/>
<defs>
<linearGradient id="paint0_linear_1459_714" x1="135.672" y1="38.0207" x2="1041.09" y2="465.153" gradientUnits="userSpaceOnUse">
<stop stop-color="#1A2B6B"/>
<stop offset="0.265625" stop-color="#0D58C6"/>
<stop offset="0.473958" stop-color="#6F8BEF"/>
<stop offset="1" stop-color="white"/>
</linearGradient>
</defs>
</svg>
